X:1
T:Title
%%score ( 1 2 ) ( 3 4 )
L:1/8
Q:1/4=90
M:9/8
K:Eb
V:1 treble nm="Strings 1, Treble"
V:2 treble 
V:3 bass nm="Strings 1, Bass"
V:4 bass 
V:1
 z3 z3 [EG]2 [FA] | [GB]3 [EG]3 [GB][FA][EG] | [DF]3 [FA]3 [FA][=EG][FA] | %3
 [DF]3 [Fd]3 [Ac][GB][FA] | [EG]6 [GB]2 [GB] | [Ge]3 [Ge]3 ef[Ge] | [Gd]3 [Gd]3 de[Fd] | %7
 [Ec]3 [Ac]3 [=Ad]2 [Ac] | B3 .A3 [AB]2 [AB] | [GB]3 [Ge]3 [EG]2 [EG] | [EG]3 [Ec]3 [EF]2 [EF] | %11
 [DF]3 [DB]3 [DF][EG][FA] | [EG]6 [GB]2 [GB] | [Ge]3 [EG]3 [EG][DA][EB] | %14
 [Ec]3 [Ad]3 [Ge][Bd][Ac] | [GB]3 [EG]3 [FA][EG][DF] | E6 [GB]2 [GB] | [AB]3 [Ad]3 [Af][Ge][Fd] | %18
 [Ge]3 [EB]3 [EB]2 [EB] | [DB]3 [DF]3 [Dc]2 [AB] | [GB]6 [GB]2 [GB] | [Ge]3 [EB]3 [EG][DA][EB] | %22
 [Ec]3 [Ad]3 [Ge][Bd][Ac] | [GB]3 [EG]3 [FA][EG][DF] | E6 z3 |] %25
V:2
 x9 | x9 | x9 | x9 | x9 | z3 z3 .G3 | z3 z3 .F3 | x9 | x9 | x9 | x9 | x9 | x9 | x9 | x9 | x9 | x9 | %17
 x9 | x9 | x9 | x9 | x9 | x9 | x9 | x9 |] %25
V:3
 z3 z3 [E,B,]2 [E,B,] | z3 z3 .B,3 | [B,,B,]3 [B,,B,]3 [B,,B,]2 [B,,B,] | z3 z3 .B,3 | %4
w: 1.~Now~ the~|of~|eve ning~ Gent ly~|cross~|
 [E,B,]6 [E,E]2 [E,E] | [E,B,]3 [E,B,]3 [C,C]2 [C,C] | [G,=B,]3 [G,B,]3 [G,B,]2 [G,B,] | %7
w: sky;~ Soon~ we'll~|see~ our~ Sav ior~|com ing�~ Lo,~ the~|
 [A,C]3 [A,E]3 [F,F]2 [F,E] | [B,D]6 [B,,D]2 [B,,D] | [E,E]3 [E,B,]3 [E,B,]2 [E,B,] | %10
w: hour~ is~ draw in~|nigh�~ Com ing~|for~ the~ pure~ and~|
 [C,C]3 [C,G,]3 [C,=A,]2 [C,A,] | [B,,B,]3 [B,,B,]3 [B,,B,]2 [B,,B,] | [E,B,]6 [E,E]2 [E,E] | %13
w: ho ly,~ By~ His~|saints~ to~ be~ ad|mired�~ Those~ re|
 z3 z3 .B,3 | z3 z3 .B,3 | [E,E]3 [E,B,]3 [B,,B,]2 [B,,A,] | [E,G,]6 [E,E]2 [E,E] | %17
w: eve|All~|gar ments~ white~ at|tired.~ * *|
 [B,D]3 B,3 B,2 [B,,B,] | [E,B,]3 [E,G,]3 [E,G,]2 [E,G,] | [B,,F,]3 [B,,B,]3 [B,,B,]2 [B,,D] | %20
w: |||
 [E,E]6 [E,E]2 [E,E] | z3 z3 .B,3 | z3 z3 .B,3 | [E,E]3 [E,B,]3 [B,,B,]2 [B,,A,] | [E,G,]6 z3 |] %25
w: |||||
V:4
 x9 | [E,E]3 [E,B,]3 E,D,[E,B,] | x9 | [B,,B,]3 [B,,B,]3 B,,C,[D,B,] | x9 | x9 | x9 | x9 | x9 | %9
w: |* * * * the~||* * * * the~||||||
 x9 | x9 | x9 | x9 | [E,B,]3 [E,B,]3 E,F,[G,B,] | A,3 [F,B,]3 E,-[E,C][E,D] | x9 | x9 | x9 | x9 | %19
w: ||||* * * * ry~|* * * * in~|||||
 x9 | x9 | [E,B,]3 [E,G,]3 E,F,[G,B,] | A,3 [F,B,]3 E,-[E,C][E,D] | x9 | x9 |] %25
w: ||||||

